src/images/svg/markets/trade.svg

<svg width="32" height="33" viewBox="0 0 32 33" fill="none" xmlns="http://www.w3.org/2000/svg">
<path fill-rule="evenodd" clip-rule="evenodd" d="M27.9861 11.087C27.9861 10.5335 27.7662 10.0026 27.3748 9.61126C26.9834 9.21987 26.4526 9 25.8991 9H2.08696C1.53346 9 1.00264 9.21987 0.611255 9.61126C0.219875 10.0026 0 10.5335 0 11.087V14.6209H27.9861V11.087ZM3.3113 12.9374C3.10355 12.9374 2.90046 12.8758 2.72771 12.7604C2.55497 12.6449 2.42033 12.4809 2.34083 12.2889C2.26132 12.097 2.24052 11.8858 2.28105 11.682C2.32158 11.4783 2.42163 11.2911 2.56853 11.1442C2.71544 10.9973 2.90261 10.8972 3.10637 10.8567C3.31014 10.8162 3.52135 10.837 3.71329 10.9165C3.90523 10.996 4.06929 11.1306 4.18471 11.3034C4.30013 11.4761 4.36174 11.6792 4.36174 11.887C4.35992 12.165 4.24866 12.4311 4.05206 12.6277C3.85546 12.8243 3.58933 12.9356 3.3113 12.9374ZM6.69913 12.9374C6.49137 12.9374 6.28828 12.8758 6.11554 12.7604C5.9428 12.6449 5.80816 12.4809 5.72865 12.2889C5.64915 12.097 5.62835 11.8858 5.66888 11.682C5.70941 11.4783 5.80945 11.2911 5.95636 11.1442C6.10327 10.9973 6.29044 10.8972 6.4942 10.8567C6.69797 10.8162 6.90917 10.837 7.10111 10.9165C7.29306 10.996 7.45711 11.1306 7.57253 11.3034C7.68796 11.4761 7.74957 11.6792 7.74957 11.887C7.74957 12.0249 7.72239 12.1615 7.6696 12.2889C7.61682 12.4164 7.53944 12.5322 7.4419 12.6297C7.34436 12.7273 7.22856 12.8046 7.10111 12.8574C6.97367 12.9102 6.83708 12.9374 6.69913 12.9374ZM10.08 12.9374C9.87224 12.9374 9.66915 12.8758 9.49641 12.7604C9.32367 12.6449 9.18903 12.4809 9.10952 12.2889C9.03002 12.097 9.00922 11.8858 9.04975 11.682C9.09028 11.4783 9.19032 11.2911 9.33723 11.1442C9.48414 10.9973 9.67131 10.8972 9.87507 10.8567C10.0788 10.8162 10.29 10.837 10.482 10.9165C10.6739 10.996 10.838 11.1306 10.9534 11.3034C11.0688 11.4761 11.1304 11.6792 11.1304 11.887C11.1286 12.165 11.0174 12.4311 10.8208 12.6277C10.6242 12.8243 10.358 12.9356 10.08 12.9374ZM0 23.6473V30.0155C0 30.569 0.219875 31.0998 0.611255 31.4912C1.00264 31.8826 1.53346 32.1024 2.08696 32.1024H25.8991C26.4526 32.1024 26.9834 31.8826 27.3748 31.4912C27.7662 31.0998 27.9861 30.569 27.9861 30.0155V15.5876H0V21.9807H2.95533L6.50933 26.542L12.1267 17L16.872 22.8287H20.738C21.0947 22.0473 21.9333 21.5327 22.8773 21.6807C23.698 21.8093 24.3787 22.474 24.5227 23.2913C24.7453 24.5567 23.7787 25.6553 22.5547 25.6553C21.7513 25.6553 21.0633 25.1787 20.7453 24.4953H16.0787L12.3473 19.9107L6.70133 29.5L2.14067 23.6473H0Z" fill="#85ACB0"/>
<g style="mix-blend-mode:multiply">
<path fill-rule="evenodd" clip-rule="evenodd" d="M24 0C19.582 0 16 3.58133 16 8C16 12.418 19.582 16 24 16C28.418 16 32 12.418 32 8C32 3.58133 28.418 0 24 0Z" fill="#FF444F"/>
</g>
<path fill-rule="evenodd" clip-rule="evenodd" d="M22.8672 11.3352L20 8.468L21.2016 7.2664L22.8672 8.932L26.7984 5L28 6.2016L22.8672 11.3352Z" fill="white"/>
</svg>

<svg width="32" height="33" fill="none" xmlns="http://www.w3.org/2000/svg"><path fill-rule="evenodd" clip-rule="evenodd" d="M27.986 11.087A2.087 2.087 0 0025.9 9H2.087A2.087 2.087 0 000 11.087v3.534h27.986v-3.534zm-24.675 1.85a1.05 1.05 0 111.05-1.05 1.057 1.057 0 01-1.05 1.05zm3.388 0a1.05 1.05 0 110-2.1 1.05 1.05 0 010 2.1zm3.381 0a1.05 1.05 0 111.05-1.05 1.057 1.057 0 01-1.05 1.05zM0 23.647v6.369a2.087 2.087 0 002.087 2.086h23.812a2.087 2.087 0 002.087-2.086V15.587H0v6.393h2.955l3.554 4.561L12.127 17l4.745 5.829h3.866a1.996 1.996 0 013.785.462 2.002 2.002 0 01-1.968 2.364 1.996 1.996 0 01-1.81-1.16H16.08l-3.732-4.584L6.701 29.5l-4.56-5.853H0z" fill="#85ACB0"/><path fill-rule="evenodd" clip-rule="evenodd" d="M24 0a8 8 0 100 16 8 8 0 000-16z" fill="#FF444F"/><path fill-rule="evenodd" clip-rule="evenodd" d="M22.867 11.335L20 8.468l1.202-1.202 1.665 1.666L26.798 5 28 6.202l-5.133 5.133z" fill="#fff"/></svg>
